svgs/sharp-light/roller-coaster.svg

<svg xmlns="http://www.w3.org/2000/svg" viewBox="0 0 640 512"><!--! Font Awesome Pro 6.6.0 by @fontawesome - https://fontawesome.com License - https://fontawesome.com/license (Commercial License) Copyright 2024 Fonticons, Inc. --><path d="M144 64c-5.4 0-10.8 .4-16 1.1L128 464l0 16-32 0 0-16L96 74.8C58.2 92.8 32 131.3 32 176l0 288 0 16L0 480l0-16L0 176C0 96.5 64.5 32 144 32l6.6 0c46.2 0 89.7 22.2 116.7 59.7L392.7 265.4c24.8 34.3 64.5 54.6 106.8 54.6l12.4 0c53 0 96-43 96-96l0-5c0-40.9-26.9-75.4-64-86.9L544 272c-6.7 5-15 8-24 8l-8 0 0-151.9c-22.5 .8-44.4 6.8-64 17.5l0 117.7c-9.2-6.3-17.3-14.2-23.9-23.4L416 228.5l0-59.5-21.4 19L373.4 164l26.4-23.5C432.1 111.9 473.8 96 517 96c67.9 0 123 55.1 123 123l0 5 0 240 0 16-32 0 0-16 0-155.3c-23.5 26.6-57.8 43.3-96 43.3l0 112 0 16-32 0 0-16 0-113.2c-22.8-2.7-44.6-10.2-64-21.7L416 464l0 16-32 0 0-16 0-159.7c-6.2-6.2-12-12.9-17.2-20.2L320 219.3 320 464l0 16-32 0 0-16 0-289-46.7-64.6c-5.1-7-10.9-13.4-17.3-19L224 464l0 16-32 0 0-16 0-392c-13-5.2-27.1-8-41.4-8L144 64z"/></svg>

<svg xmlns="http://www.w3.org/2000/svg" viewBox="0 0 640 512"><!--! Font Awesome Pro 6.4.0 by @fontawesome - https://fontawesome.com License - https://fontawesome.com/license (Commercial License) Copyright 2023 Fonticons, Inc. --><path d="M144 64c-5.4 0-10.8 .4-16 1.1V464v16H96V464 74.8C58.2 92.8 32 131.3 32 176V464v16H0V464 176C0 96.5 64.5 32 144 32h6.6c46.2 0 89.7 22.2 116.7 59.7L392.7 265.4c24.8 34.3 64.5 54.6 106.8 54.6H512c53 0 96-43 96-96v-5c0-40.9-26.9-75.4-64-86.9V272c-6.7 5-15 8-24 8h-8V128.1c-22.5 .8-44.4 6.8-64 17.5V263.2c-9.2-6.3-17.3-14.2-23.9-23.4L416 228.5V169l-21.4 19L373.4 164l26.4-23.5C432.1 111.9 473.8 96 517 96c67.9 0 123 55.1 123 123v5V464v16H608V464 308.7c-23.5 26.6-57.8 43.3-96 43.3V464v16H480V464 350.8c-22.8-2.7-44.6-10.2-64-21.7V464v16H384V464 304.3c-6.2-6.2-12-12.9-17.2-20.2L320 219.3V464v16H288V464 175l-46.7-64.6c-5.1-7-10.9-13.4-17.3-19V464v16H192V464 72c-13-5.2-27.1-8-41.4-8H144z"/></svg>
